svg/UnitedNationsOCHA-Humanitarian/telecommunications_radio_icon_box.svg

<svg xmlns="http://www.w3.org/2000/svg" viewBox="0 0 32 32" enable-background="new 0 0 32 32"><path fill="#407cca" d="m7.38 19.16h.75v5.416h-.75v-5.416m2.72 5.416h.75v-5.416h-.75v5.416m-2.72-8.02h17.24v-2.806h-17.24v2.806m24.62-10.153v19.2c0 3.521-2.88 6.4-6.4 6.4h-19.2c-3.52 0-6.4-2.88-6.4-6.4v-19.2c0-3.52 2.88-6.4 6.4-6.4h19.2c3.52 0 6.4 2.88 6.4 6.4m-4.75 5.113h-17.648l11.295-5.354c.286.119.613.131.913-.012.563-.266.803-.938.537-1.503-.267-.563-.94-.803-1.503-.534-.302.141-.498.4-.588.694l-14.161 6.709h-1.345v16.487h22.5v-16.487m-5.338 7.646c-1.493 0-2.706 1.213-2.706 2.706 0 1.497 1.213 2.71 2.706 2.71 1.496 0 2.708-1.213 2.708-2.71 0-1.493-1.212-2.706-2.708-2.706m-6.371 5.416h.75v-5.416h-.75v5.416m-2.719 0h.75v-5.416h-.75v5.416"/></svg>

<?xml version="1.0" encoding="utf-8"?>
<!-- Generator: Adobe Illustrator 16.0.3, SVG Export Plug-In . SVG Version: 6.00 Build 0)  -->
<!DOCTYPE svg PUBLIC "-//W3C//DTD SVG 1.1//EN" "http://www.w3.org/Graphics/SVG/1.1/DTD/svg11.dtd">
<svg version="1.1" id="Layer_1" xmlns="http://www.w3.org/2000/svg" xmlns:xlink="http://www.w3.org/1999/xlink" x="0px" y="0px"
	 width="32px" height="32px" viewBox="0 0 32 32" enable-background="new 0 0 32 32" xml:space="preserve">
<path fill="#407CCA" d="M7.38,19.159h0.75v5.416H7.38V19.159z M10.1,24.575h0.75v-5.416H10.1V24.575z M7.38,16.553h17.24v-2.806
	H7.38V16.553z M32,6.4v19.2c0,3.521-2.88,6.4-6.4,6.4H6.4C2.88,32,0,29.12,0,25.6V6.4C0,2.88,2.88,0,6.4,0h19.2
	C29.12,0,32,2.88,32,6.4z M27.25,11.513H9.602l11.295-5.354c0.286,0.119,0.613,0.131,0.913-0.012
	c0.563-0.266,0.803-0.938,0.537-1.503c-0.267-0.563-0.94-0.803-1.503-0.534c-0.302,0.141-0.498,0.4-0.588,0.694L6.095,11.513H4.75
	V28h22.5V11.513z M21.912,19.159c-1.493,0-2.706,1.213-2.706,2.706c0,1.497,1.213,2.71,2.706,2.71c1.496,0,2.708-1.213,2.708-2.71
	C24.62,20.372,23.408,19.159,21.912,19.159z M15.541,24.575h0.75v-5.416h-0.75V24.575z M12.822,24.575h0.75v-5.416h-0.75V24.575z"/>
</svg>
